X: 7907
T: Con Tadhgo's
R: jig
M: 6/8
K: Gmajor
|:dBA ~B2A|~B2A AGA|dBA ~B2A|AGF G2e|
dBA ~B2A|~B2A G2e|dBA ~B2A|AGF G2e:|
|:d2g gfg|~a3 bge|dB/c/d gdd|edB ABc|
d2g gfg|~a3 bge|dBA ~B2A|AGF G2e:|

